X: 26825
T: Millstream, The
R: reel
M: 4/4
K: Amajor
EAcd|e2cA BGEA|eAcA dcdf|eAcA BEEE|AcBc ABcd|
e2cA BGEA|eAcA dcdB|AcBd ce f/g/a|gedB ABcA
|:B2ef gedB|Aaaa gaba|gaba gedB|1 AcBc ABcA:|2 AcBc ABcd||

